X: 1
T: Radio, The
M: 3/4
L: 1/8
R: mazurka
K: Gmaj
|:G,2 G,>B, D>G|E2 E>D E>G|B2 B>A B>c|d6|
c2 B2 A2|c2 B2 A2|G2 G>B A>G|(3EGE D2 B,2|
G,2 G,>B, D>G|E2 E>D E>G|B2 B>A B>c|d6|
d2 c2 B2|c2 B2 A2|B>A G2 F2|G6:|
|:D2 D>F A>c|c2 B2 A2|B2 g>B a>B|b>B a>B g>B|
c2 g>c a>c|b>c a>c g>c|B2 g>B a>B|b>B a>B g>B|
D2 D>F A>c|c2 B2 A2|B2 g>B a>B|b>B a>B g>B|
a2 a>f d2|d2 e2 f2|g2 d2 B2|G6:|
